packages/katcn/src/icons/svg/branching-solid.svg

<svg width="24" height="25" viewBox="0 0 24 25" fill="none" xmlns="http://www.w3.org/2000/svg">
<path d="M15.6667 13.5285H20.1872C21.7945 13.5285 23 12.2226 23 10.7157V8.60615C23 6.99884 21.6941 5.79336 20.1872 5.79336H15.6667C14.0594 5.79336 12.8539 7.0993 12.8539 8.60615H3.00913V2.98058C3.00913 2.37784 2.60731 1.97601 2.00457 1.97601C1.40183 1.97601 1 2.37784 1 2.98058V17.4463C1 19.5559 2.70776 21.1632 4.71689 21.1632H12.8539C12.8539 22.7705 14.1598 23.976 15.6667 23.976H20.1872C21.7945 23.976 23 22.6701 23 21.1632V19.0536C23 17.4463 21.6941 16.2409 20.1872 16.2409H15.6667C14.0594 16.2409 12.8539 17.5468 12.8539 19.0536H4.71689C3.71233 19.0536 3.00913 18.25 3.00913 17.3459V10.6153H12.8539C12.8539 12.2226 14.1598 13.5285 15.6667 13.5285Z" fill="black"/>
</svg>

<svg xmlns="http://www.w3.org/2000/svg" fill="none" viewBox="0 0 24 25"><path fill="#000" d="M15.667 13.529h4.52A2.81 2.81 0 0 0 23 10.715v-2.11a2.81 2.81 0 0 0-2.813-2.813h-4.52a2.81 2.81 0 0 0-2.813 2.813H3.009V2.981c0-.603-.402-1.005-1.004-1.005C1.402 1.976 1 2.378 1 2.981v14.465a3.71 3.71 0 0 0 3.717 3.717h8.137a2.81 2.81 0 0 0 2.813 2.813h4.52A2.81 2.81 0 0 0 23 21.163v-2.11a2.81 2.81 0 0 0-2.813-2.812h-4.52a2.81 2.81 0 0 0-2.813 2.813H4.717a1.693 1.693 0 0 1-1.708-1.708v-6.73h9.845c0 1.607 1.306 2.912 2.813 2.912"/></svg>
